; HEADER_BLOCK_START
; generated by ElegooSlicer 1.3.0.11 on 2026-03-15 at 15:19:09
; total layer number: 12
; filament_density: 1.25,1.25,1.25,1.25
; filament_diameter: 1.75,1.75,1.75,1.75
; max_z_height: 2.40
; HEADER_BLOCK_END



; THUMBNAIL_BLOCK_START

;
; THUMBNAIL_BLOCK_END

; external perimeters extrusion width = 0.42mm
; perimeters extrusion width = 0.45mm
; infill extrusion width = 0.45mm
; solid infill extrusion width = 0.42mm
; top infill extrusion width = 0.42mm
; first layer extrusion width = 0.50mm

; EXECUTABLE_BLOCK_START
M73 P0 R3
M106 S0
M106 P2 S0
;TYPE:Custom
;===== CC2_START_GCODE ================
;===== date: 2025-11-06-001 =====================

G90
M104 S140
M140 S60
M190 S60 A
M106 S0
BED_MESH_CALIBRATE mesh_min=114.376,101.188 mesh_max=141.623,154.812 ALGORITHM=bicubic PROBE_COUNT=4,4 ADAPTIVE=0 ADAPTIVE_MARGIN=0 FROM_SLICER=1
M204 S5000 ;Call exterior wall print acceleration
G28
M109 S210
M6211 A1 L200 T0 Q210 R210 S210
T0


G180 S7
G1 X127 Y-1.2 F20000
G1 Z0.5 F900
M109 S210
M83
G92 E0 ;Reset Extruder
G1 E6 F251.567 
M106 S200
G1 X87 E20 F1200 
G1 F6000
M73 P1 R3
G1 X82 E0.8

M106 S0
G180 S8
G1 F20000
G92 E0 ;Reset Extruder
;LAYER_COUNT:12
;LAYER:0
G90
G21
M83 ; use relative distances for extrusion
; filament start gcode
M106 P3 S200


M106 P2 S0
;LAYER_CHANGE
;Z:0.2
;HEIGHT:0.2
;BEFORE_LAYER_CHANGE
;0.2
G92 E0

G1 E-.8 F1800
M73 L1
;LAYER:1

;_SET_FAN_SPEED_CHANGING_LAYER
SET_VELOCITY_LIMIT ACCEL=2000
G1 X130.803 Y106.62 F30000
G1 Z.6
M73 P2 R3
G1 Z.2
G1 E.8 F1800
;TYPE:Inner wall
;WIDTH:0.5
G1 F3000
G1 X130.808 Y106.672 E.00191
G1 X130.776 Y107.115 E.01603
G1 X130.64 Y107.649 E.01992
G1 X130.397 Y108.154 E.02023
G1 X130.058 Y108.601 E.02026
G1 X129.641 Y108.969 E.02012
G1 X129.155 Y109.25 E.02027
G1 X128.941 Y109.322 E.00817
G1 X128.941 Y109.519 E.00712
G1 X129.207 Y109.608 E.01016
G1 X129.508 Y109.744 E.01191
G1 X129.793 Y109.909 E.01192
G1 X130.061 Y110.101 E.01191
G1 X130.308 Y110.32 E.01191
G1 X130.533 Y110.561 E.01192
G1 X130.732 Y110.824 E.01192
G1 X130.904 Y111.106 E.01191
G1 X131.047 Y111.403 E.01191
G1 X131.16 Y111.713 E.01192
G1 X131.241 Y112.032 E.01191
G1 X131.29 Y112.358 E.01191
G1 X131.307 Y112.69 E.01202
G1 X131.272 Y113.172 E.01743
G1 X131.204 Y113.504 E.01225
G1 X131.107 Y113.819 E.01192
G1 X130.979 Y114.123 E.01191
G1 X130.821 Y114.413 E.01191
G1 X130.636 Y114.685 E.01192
G1 X130.424 Y114.938 E.01191
G1 X130.188 Y115.168 E.01192
G1 X129.93 Y115.374 E.01191
G1 X129.653 Y115.553 E.01191
G1 X129.359 Y115.703 E.01192
G1 X128.769 Y115.934 E.02289
G1 X129.39 Y116.143 E.02365
G1 X129.736 Y116.299 E.01371
G1 X130.065 Y116.489 E.01372
G1 X130.373 Y116.711 E.01372
G1 X130.658 Y116.962 E.01371
G1 X130.916 Y117.24 E.01371
G1 X131.145 Y117.543 E.01372
G1 X131.343 Y117.867 E.01372
G1 X131.508 Y118.209 E.01372
G1 X131.638 Y118.565 E.01371
G1 X131.731 Y118.933 E.01372
G1 X131.788 Y119.308 E.01371
G1 X131.807 Y119.689 E.01378
G1 X131.766 Y120.246 E.02017
G1 X131.689 Y120.627 E.01405
G1 X131.577 Y120.99 E.01372
G1 X131.43 Y121.34 E.01372
G1 X131.248 Y121.673 E.01371
G1 X131.034 Y121.987 E.01371
G1 X130.79 Y122.278 E.01372
G1 X130.518 Y122.543 E.01371
G1 X130.222 Y122.78 E.01371
G1 X129.903 Y122.986 E.01372
G1 X129.565 Y123.159 E.01371
G1 X129.212 Y123.298 E.01371
G1 X128.846 Y123.4 E.01372
G1 X128.472 Y123.466 E.01371
G1 X128.094 Y123.495 E.01372
G1 X127.714 Y123.485 E.01372
G1 X127.338 Y123.438 E.01371
G1 X126.967 Y123.353 E.01372
G1 X126.607 Y123.233 E.01372
G1 X126.261 Y123.076 E.01371
G1 X125.933 Y122.887 E.01372
G1 X125.624 Y122.665 E.01372
G1 X125.34 Y122.414 E.01371
G1 X125.082 Y122.136 E.01371
G1 X124.852 Y121.833 E.01372
G1 X124.654 Y121.509 E.01372
G1 X124.49 Y121.167 E.01372
G1 X124.36 Y120.81 E.01372
G1 X124.266 Y120.442 E.01372
G1 X124.21 Y120.067 E.01371
G1 X124.191 Y119.688 E.01372
G1 X124.21 Y119.309 E.01372
G1 X124.266 Y118.933 E.01371
G1 X124.36 Y118.565 E.01372
G1 X124.49 Y118.209 E.01371
G1 X124.654 Y117.867 E.01372
G1 X124.852 Y117.543 E.01372
G1 X125.082 Y117.24 E.01372
G1 X125.34 Y116.962 E.01371
G1 X125.624 Y116.711 E.01371
G1 X125.94 Y116.484 E.01404
G1 X126.424 Y116.22 E.01993
G1 X126.786 Y116.078 E.01403
G1 X126.961 Y116.029 E.00659
G1 X126.966 Y115.826 E.00731
G1 X126.49 Y115.632 E.01861
G1 X126.204 Y115.467 E.01192
G1 X125.936 Y115.274 E.01191
G1 X125.689 Y115.056 E.01192
G1 X125.465 Y114.814 E.01191
G1 X125.265 Y114.551 E.01192
G1 X125.094 Y114.27 E.01191
G1 X124.95 Y113.973 E.01191
G1 X124.838 Y113.663 E.01192
G1 X124.756 Y113.343 E.01191
G1 X124.707 Y113.017 E.01191
G1 X124.69 Y112.685 E.01202
G1 X124.726 Y112.204 E.01743
G1 X124.793 Y111.872 E.01225
G1 X124.89 Y111.556 E.01192
G1 X125.018 Y111.253 E.01191
G1 X125.176 Y110.963 E.01191
G1 X125.362 Y110.69 E.01192
G1 X125.574 Y110.438 E.01191
G1 X125.81 Y110.207 E.01192
G1 X126.068 Y110.002 E.01191
G1 X126.345 Y109.823 E.01191
G1 X126.638 Y109.672 E.01192
G1 X127.235 Y109.439 E.02314
G1 X126.474 Y109.049 E.03088
G1 X126.035 Y108.699 E.02027
G1 X125.677 Y108.272 E.02012
G1 X125.408 Y107.778 E.02031
G1 X125.244 Y107.245 E.02017
G1 X125.189 Y106.703 E.01967
G1 X125.221 Y106.261 E.01603
G1 X125.357 Y105.727 E.01992
G1 X125.6 Y105.222 E.02023
G1 X125.939 Y104.775 E.02027
G1 X126.358 Y104.406 E.02017
G1 X126.843 Y104.126 E.02022
G1 X127.373 Y103.948 E.02022
G1 X127.927 Y103.878 E.02018
G1 X128.487 Y103.92 E.02027
G1 X129.026 Y104.072 E.02023
G1 X129.525 Y104.328 E.02027
G1 X129.962 Y104.677 E.02022
G1 X130.32 Y105.103 E.02012
G1 X130.589 Y105.596 E.02026
G1 X130.754 Y106.131 E.02022
G1 X130.799 Y106.58 E.01632
G1 E-.728 F1800
;WIPE_START
G1 F30000
G1 X130.808 Y106.672 E-.00557
G1 X130.776 Y107.115 E-.02662
G1 X130.64 Y107.649 E-.03309
G1 X130.591 Y107.75 E-.00673
;WIPE_END
G1 X127.189 Y114.582 Z.6
G1 X125.973 Y117.023 Z.6
G1 Z.2
G1 E.8 F1800
;TYPE:Outer wall
G1 F3000
G1 X126.184 Y116.872 E.00937
G1 X126.618 Y116.635 E.01787
G1 X126.932 Y116.512 E.01218
G1 X127.253 Y116.421 E.01207
G1 X127.582 Y116.363 E.01207
G1 X127.915 Y116.338 E.01207
G1 X128.249 Y116.347 E.01207
G1 X128.58 Y116.388 E.01206
G1 X128.906 Y116.463 E.01207
G1 X129.223 Y116.569 E.01207
G1 X129.527 Y116.706 E.01207
G1 X129.816 Y116.873 E.01207
G1 X130.088 Y117.068 E.01207
G1 X130.338 Y117.289 E.01207
G1 X130.565 Y117.534 E.01207
G1 X130.767 Y117.8 E.01207
G1 X130.941 Y118.085 E.01207
G1 X131.086 Y118.386 E.01207
G1 X131.2 Y118.7 E.01207
G1 X131.283 Y119.024 E.01207
G1 X131.332 Y119.354 E.01206
G1 X131.349 Y119.684 E.01194
G1 X131.312 Y120.184 E.0181
G1 X131.245 Y120.515 E.01219
G1 X131.147 Y120.834 E.01207
G1 X131.017 Y121.142 E.01207
G1 X130.858 Y121.435 E.01207
G1 X130.669 Y121.711 E.01207
G1 X130.455 Y121.967 E.01207
G1 X130.216 Y122.2 E.01207
G1 X129.954 Y122.408 E.01207
G1 X129.674 Y122.589 E.01207
G1 X129.377 Y122.742 E.01207
G1 X129.066 Y122.864 E.01207
G1 X128.744 Y122.954 E.01207
G1 X128.415 Y123.012 E.01206
G1 X128.082 Y123.037 E.01207
G1 X127.748 Y123.029 E.01207
G1 X127.417 Y122.987 E.01206
G1 X127.091 Y122.913 E.01207
G1 X126.775 Y122.807 E.01207
G1 X126.47 Y122.669 E.01207
G1 X126.181 Y122.502 E.01207
G1 X125.91 Y122.307 E.01207
G1 X125.659 Y122.086 E.01207
G1 X125.432 Y121.841 E.01207
G1 X125.231 Y121.575 E.01207
G1 X125.056 Y121.29 E.01207
G1 X124.911 Y120.989 E.01207
M73 P3 R3
G1 X124.797 Y120.675 E.01207
G1 X124.715 Y120.352 E.01207
G1 X124.665 Y120.021 E.01206
G1 X124.648 Y119.688 E.01207
G1 X124.665 Y119.354 E.01207
G1 X124.715 Y119.024 E.01207
G1 X124.797 Y118.7 E.01207
G1 X124.911 Y118.386 E.01207
G1 X125.056 Y118.085 E.01207
G1 X125.231 Y117.8 E.01207
G1 X125.432 Y117.534 E.01207
G1 X125.659 Y117.289 E.01207
G1 X125.91 Y117.068 E.01207
G1 X125.941 Y117.046 E.00137
G1 E-.728 F1800
;WIPE_START
G1 F30000
G1 X126.184 Y116.872 E-.01796
G1 X126.618 Y116.635 E-.02967
G1 X126.932 Y116.512 E-.02023
G1 X126.998 Y116.493 E-.00414
;WIPE_END
G1 X125.23 Y112.017 Z.6
G1 Z.2
G1 E.8 F1800
G1 F3000
G1 X125.237 Y111.984 E.00121
G1 X125.32 Y111.713 E.01027
G1 X125.431 Y111.451 E.01026
G1 X125.567 Y111.202 E.01027
G1 X125.727 Y110.967 E.01027
G1 X125.909 Y110.749 E.01026
G1 X126.113 Y110.551 E.01027
G1 X126.335 Y110.374 E.01026
G1 X126.574 Y110.219 E.01027
G1 X126.826 Y110.09 E.01027
G1 X127.091 Y109.986 E.01026
G1 X127.364 Y109.909 E.01027
G1 X127.644 Y109.86 E.01027
G1 X127.928 Y109.838 E.01027
G1 X128.212 Y109.845 E.01027
G1 X128.494 Y109.881 E.01027
G1 X128.771 Y109.944 E.01026
G1 X129.04 Y110.034 E.01027
G1 X129.299 Y110.151 E.01027
G1 X129.545 Y110.293 E.01027
G1 X129.776 Y110.459 E.01026
G1 X129.989 Y110.647 E.01027
G1 X130.182 Y110.856 E.01027
G1 X130.354 Y111.082 E.01027
G1 X130.502 Y111.325 E.01027
G1 X130.625 Y111.581 E.01026
G1 X130.722 Y111.848 E.01027
G1 X130.793 Y112.123 E.01027
G1 X130.835 Y112.404 E.01027
G1 X130.849 Y112.685 E.01018
G1 X130.818 Y113.109 E.01537
G1 X130.761 Y113.391 E.01039
G1 X130.677 Y113.663 E.01027
G1 X130.567 Y113.925 E.01026
G1 X130.431 Y114.174 E.01027
G1 X130.271 Y114.409 E.01027
G1 X130.088 Y114.626 E.01026
G1 X129.885 Y114.825 E.01027
G1 X129.663 Y115.002 E.01026
G1 X129.424 Y115.156 E.01027
G1 X129.171 Y115.286 E.01027
G1 X128.906 Y115.39 E.01026
G1 X128.633 Y115.467 E.01027
G1 X128.353 Y115.516 E.01027
G1 X128.07 Y115.537 E.01027
G1 X127.786 Y115.53 E.01027
G1 X127.504 Y115.495 E.01027
G1 X127.227 Y115.432 E.01027
G1 X126.957 Y115.341 E.01027
G1 X126.698 Y115.224 E.01027
G1 X126.452 Y115.082 E.01027
G1 X126.222 Y114.916 E.01026
G1 X126.008 Y114.728 E.01027
G1 X125.815 Y114.52 E.01027
G1 X125.644 Y114.293 E.01027
G1 X125.495 Y114.051 E.01027
G1 X125.372 Y113.795 E.01026
G1 X125.275 Y113.528 E.01027
G1 X125.205 Y113.253 E.01027
G1 X125.163 Y112.972 E.01027
G1 X125.148 Y112.69 E.01018
G1 X125.18 Y112.266 E.01537
G1 X125.222 Y112.057 E.00773
G1 E-.728 F1800
;WIPE_START
G1 F30000
G1 X125.237 Y111.984 E-.00441
G1 X125.32 Y111.713 E-.01705
G1 X125.431 Y111.451 E-.01705
G1 X125.567 Y111.202 E-.01705
G1 X125.721 Y110.975 E-.01644
;WIPE_END
G1 X130.348 Y106.666 Z.6
G1 Z.2
G1 E.8 F1800
G1 F3000
G1 X130.35 Y106.679 E.00047
G1 X130.323 Y107.041 E.01313
G1 X130.208 Y107.492 E.01681
G1 X130.005 Y107.914 E.01692
G1 X129.721 Y108.288 E.01696
G1 X129.372 Y108.596 E.01682
G1 X128.966 Y108.831 E.01696
G1 X128.522 Y108.98 E.01692
G1 X128.057 Y109.038 E.01692
G1 X127.59 Y109.003 E.01692
G1 X127.14 Y108.876 E.01691
G1 X126.723 Y108.663 E.01692
G1 X126.356 Y108.37 E.01697
G1 X126.057 Y108.013 E.01682
G1 X125.832 Y107.6 E.01701
G1 X125.694 Y107.154 E.01687
G1 X125.648 Y106.697 E.01659
G1 X125.674 Y106.335 E.01313
G1 X125.789 Y105.884 E.01681
G1 X125.992 Y105.462 E.01692
G1 X126.276 Y105.088 E.01696
G1 X126.626 Y104.779 E.01687
G1 X127.032 Y104.545 E.01692
G1 X127.475 Y104.395 E.01692
G1 X127.939 Y104.337 E.01687
G1 X128.407 Y104.372 E.01696
G1 X128.858 Y104.499 E.01692
G1 X129.276 Y104.713 E.01696
G1 X129.641 Y105.006 E.01692
G1 X129.941 Y105.362 E.01682
G1 X130.165 Y105.774 E.01696
G1 X130.303 Y106.222 E.01692
G1 X130.344 Y106.626 E.01468
G1 E-.728 F1800
;WIPE_START
G1 F30000
G1 X130.35 Y106.679 E-.00318
G1 X130.323 Y107.041 E-.0218
G1 X130.208 Y107.492 E-.02792
G1 X130.07 Y107.779 E-.0191
;WIPE_END
G1 X127.295 Y114.889 Z.6
G1 X120.806 Y131.512 Z.6
G1 Z.2
G1 E.8 F1800
;TYPE:Inner wall
G1 F3000
G1 X120.806 Y102.495 E1.04834
G1 X135.192 Y102.495 E.51974
M73 P4 R3
G1 X135.192 Y131.589 E1.05113
G1 X135.809 Y132.203 E.03148
G1 X136.158 Y132.585 E.01866
G1 X136.487 Y132.982 E.01866
G1 X136.798 Y133.395 E.01866
G1 X137.088 Y133.822 E.01866
G1 X137.358 Y134.263 E.01866
G1 X137.606 Y134.716 E.01866
G1 X137.832 Y135.18 E.01866
G1 X138.036 Y135.655 E.01866
G1 X138.218 Y136.139 E.01866
G1 X138.375 Y136.63 E.01866
G1 X138.509 Y137.129 E.01866
G1 X138.62 Y137.634 E.01866
G1 X138.706 Y138.143 E.01866
G1 X138.767 Y138.656 E.01866
G1 X138.804 Y139.171 E.01867
G1 X138.816 Y139.687 E.01865
G1 X138.803 Y140.222 E.01932
G1 X138.764 Y140.755 E.01931
G1 X138.698 Y141.286 E.01931
G1 X138.606 Y141.812 E.01931
G1 X138.488 Y142.334 E.01931
G1 X138.344 Y142.849 E.01931
G1 X138.176 Y143.356 E.01931
G1 X137.982 Y143.854 E.01931
G1 X137.764 Y144.342 E.01931
G1 X137.522 Y144.819 E.01931
G1 X137.257 Y145.283 E.01931
G1 X136.969 Y145.733 E.01931
G1 X136.66 Y146.169 E.01931
G1 X136.329 Y146.589 E.01931
G1 X135.978 Y146.992 E.01931
G1 X135.607 Y147.377 E.01931
G1 X135.218 Y147.744 E.01931
G1 X134.812 Y148.091 E.01931
G1 X134.388 Y148.417 E.01931
G1 X133.949 Y148.722 E.01931
G1 X133.496 Y149.005 E.01931
G1 X133.029 Y149.265 E.01931
G1 X132.549 Y149.502 E.01931
G1 X132.059 Y149.715 E.01931
G1 X131.559 Y149.903 E.01931
G1 X131.05 Y150.066 E.01931
G1 X130.533 Y150.204 E.01931
G1 X130.011 Y150.317 E.01931
G1 X129.483 Y150.403 E.01931
G1 X128.952 Y150.463 E.01931
G1 X128.419 Y150.497 E.01932
G1 X127.884 Y150.505 E.01931
G1 X127.35 Y150.486 E.01931
G1 X126.818 Y150.441 E.01931
G1 X126.288 Y150.369 E.01931
G1 X125.762 Y150.272 E.01931
G1 X125.242 Y150.148 E.01931
G1 X124.729 Y149.999 E.01931
G1 X124.223 Y149.825 E.01931
G1 X123.727 Y149.626 E.01931
G1 X123.241 Y149.403 E.01931
G1 X122.767 Y149.156 E.01931
G1 X122.306 Y148.886 E.01931
G1 X121.859 Y148.594 E.01931
G1 X121.426 Y148.28 E.01931
G1 X121.01 Y147.945 E.01931
G1 X120.61 Y147.589 E.01931
G1 X120.229 Y147.215 E.01931
G1 X119.867 Y146.822 E.01931
G1 X119.524 Y146.411 E.01931
G1 X119.203 Y145.985 E.01931
G1 X118.902 Y145.542 E.01931
G1 X118.624 Y145.086 E.01931
G1 X118.369 Y144.616 E.01931
G1 X118.137 Y144.134 E.01931
G1 X117.93 Y143.642 E.01931
G1 X117.747 Y143.14 E.01931
G1 X117.589 Y142.629 E.01931
G1 X117.456 Y142.111 E.01931
G1 X117.349 Y141.587 E.01931
G1 X117.268 Y141.059 E.01931
G1 X117.214 Y140.527 E.01931
G1 X117.185 Y139.994 E.01931
G1 X117.183 Y139.459 E.01931
G1 X117.208 Y138.925 E.01931
G1 X117.259 Y138.393 E.01931
G1 X117.336 Y137.864 E.01931
G1 X117.439 Y137.34 E.01931
G1 X117.568 Y136.821 E.01931
G1 X117.722 Y136.309 E.01931
G1 X117.902 Y135.806 E.01931
G1 X118.106 Y135.312 E.01931
G1 X118.334 Y134.828 E.01931
G1 X118.586 Y134.357 E.01931
G1 X118.861 Y133.898 E.01931
G1 X119.158 Y133.454 E.01931
G1 X119.477 Y133.025 E.01931
G1 X119.816 Y132.612 E.01931
G1 X120.176 Y132.216 E.01931
G1 X120.806 Y131.588 E.03214
G1 X120.806 Y131.552 E.00133
G1 X120.335 Y131.412 F30000
;TYPE:Outer wall
G1 F3000
G1 X120.349 Y131.399 E.00068
G1 X120.349 Y102.038 E1.06077
G1 X135.649 Y102.038 E.55277
M73 P5 R3
G1 X135.649 Y131.399 E1.06078
G1 X136.139 Y131.887 E.02501
G1 X136.503 Y132.285 E.01945
G1 X136.846 Y132.699 E.01945
G1 X137.17 Y133.129 E.01945
G1 X137.472 Y133.574 E.01945
G1 X137.753 Y134.034 E.01945
G1 X138.012 Y134.506 E.01945
G1 X138.248 Y134.99 E.01945
G1 X138.461 Y135.484 E.01945
G1 X138.649 Y135.989 E.01945
G1 X138.814 Y136.501 E.01945
G1 X138.954 Y137.021 E.01945
G1 X139.069 Y137.547 E.01945
G1 X139.158 Y138.078 E.01945
G1 X139.222 Y138.613 E.01945
G1 X139.261 Y139.15 E.01945
G1 X139.274 Y139.688 E.01944
G1 X139.26 Y140.245 E.02013
G1 X139.219 Y140.8 E.02013
G1 X139.15 Y141.353 E.02013
G1 X139.054 Y141.902 E.02013
G1 X138.931 Y142.445 E.02013
G1 X138.782 Y142.982 E.02013
G1 X138.606 Y143.511 E.02013
G1 X138.404 Y144.03 E.02013
G1 X138.177 Y144.539 E.02013
G1 X137.925 Y145.036 E.02013
G1 X137.648 Y145.519 E.02013
G1 X137.349 Y145.989 E.02013
G1 X137.026 Y146.443 E.02013
G1 X136.681 Y146.881 E.02013
G1 X136.315 Y147.301 E.02013
G1 X135.929 Y147.702 E.02013
G1 X135.523 Y148.084 E.02013
G1 X135.099 Y148.446 E.02013
G1 X134.658 Y148.786 E.02013
G1 X134.201 Y149.104 E.02013
G1 X133.728 Y149.399 E.02013
G1 X133.241 Y149.67 E.02013
G1 X132.742 Y149.916 E.02013
G1 X132.231 Y150.138 E.02013
G1 X131.709 Y150.335 E.02013
G1 X131.179 Y150.505 E.02013
G1 X130.641 Y150.649 E.02013
G1 X130.096 Y150.766 E.02013
G1 X129.546 Y150.856 E.02013
G1 X128.993 Y150.919 E.02013
G1 X128.437 Y150.954 E.02013
G1 X127.879 Y150.962 E.02013
G1 X127.323 Y150.942 E.02013
G1 X126.768 Y150.895 E.02013
G1 X126.215 Y150.821 E.02013
G1 X125.668 Y150.719 E.02013
G1 X125.126 Y150.59 E.02013
G1 X124.591 Y150.435 E.02013
G1 X124.064 Y150.254 E.02013
G1 X123.547 Y150.047 E.02013
G1 X123.04 Y149.814 E.02013
G1 X122.546 Y149.557 E.02013
G1 X122.065 Y149.275 E.02013
G1 X121.599 Y148.97 E.02013
M73 P6 R3
