; HEADER_BLOCK_START
; generated by ElegooSlicer 1.3.0.11 on 2026-03-16 at 13:11:35
; total layer number: 12
; filament_density: 1.25,1.25,1.25,1.25
; filament_diameter: 1.75,1.75,1.75,1.75
; max_z_height: 2.40
; HEADER_BLOCK_END



; THUMBNAIL_BLOCK_START

;
; THUMBNAIL_BLOCK_END

; external perimeters extrusion width = 0.42mm
; perimeters extrusion width = 0.45mm
; infill extrusion width = 0.45mm
; solid infill extrusion width = 0.42mm
; top infill extrusion width = 0.42mm
; first layer extrusion width = 0.50mm

; EXECUTABLE_BLOCK_START
M73 P0 R1
M106 S0
M106 P2 S0
;TYPE:Custom
;===== CC2_START_GCODE ================
;===== date: 2025-11-06-001 =====================

G90
M104 S140
M140 S60
M190 S60 A
M106 S0
BED_MESH_CALIBRATE mesh_min=114.377,114.376 mesh_max=141.622,141.624 ALGORITHM=bicubic PROBE_COUNT=4,4 ADAPTIVE=0 ADAPTIVE_MARGIN=0 FROM_SLICER=1
M204 S5000 ;Call exterior wall print acceleration
G28
M109 S210
M6211 A1 L200 T0 Q210 R210 S210
T0


G180 S7
G1 X127 Y-1.2 F20000
G1 Z0.5 F900
M109 S210
M83
G92 E0 ;Reset Extruder
G1 E6 F251.567 
M106 S200
G1 X87 E20 F1200 
M73 P1 R1
G1 F6000
M73 P3 R1
G1 X82 E0.8

M106 S0
G180 S8
G1 F20000
G92 E0 ;Reset Extruder
;LAYER_COUNT:12
;LAYER:0
G90
G21
M83 ; use relative distances for extrusion
; filament start gcode
M106 P3 S200


M106 P2 S0
;LAYER_CHANGE
;Z:0.2
;HEIGHT:0.2
;BEFORE_LAYER_CHANGE
;0.2
G92 E0

G1 E-.8 F1800
M73 L1
;LAYER:1

;_SET_FAN_SPEED_CHANGING_LAYER
SET_VELOCITY_LIMIT ACCEL=2000
G1 X128.619 Y115.71 F30000
G1 Z.6
M73 P4 R1
G1 Z.2
G1 E.8 F1800
;TYPE:Inner wall
;WIDTH:0.5
G1 F3000
G1 X129.354 Y115.768 E.02664
G1 X129.942 Y115.859 E.02148
G1 X130.53 Y115.983 E.02173
G1 X131.111 Y116.14 E.02173
G1 X131.682 Y116.329 E.02173
G1 X132.241 Y116.55 E.02173
G1 X132.788 Y116.801 E.02173
G1 X133.319 Y117.082 E.02173
G1 X133.835 Y117.392 E.02173
G1 X134.332 Y117.731 E.02173
G1 X134.788 Y118.08 E.02076
G1 X135.267 Y118.488 E.02273
G1 X135.7 Y118.904 E.02169
G1 X136.11 Y119.344 E.02173
G1 X136.495 Y119.806 E.02173
G1 X136.854 Y120.288 E.02173
G1 X137.186 Y120.79 E.02173
G1 X137.489 Y121.31 E.02173
G1 X137.763 Y121.845 E.02173
G1 X138.006 Y122.395 E.02173
G1 X138.219 Y122.958 E.02173
G1 X138.4 Y123.531 E.02173
G1 X138.549 Y124.114 E.02173
G1 X138.665 Y124.704 E.02173
G1 X138.749 Y125.299 E.02173
G1 X138.799 Y125.899 E.02173
G1 X138.815 Y126.5 E.02173
G1 X138.799 Y127.101 E.02173
G1 X138.749 Y127.701 E.02173
G1 X138.665 Y128.296 E.02173
G1 X138.549 Y128.886 E.02173
G1 X138.4 Y129.469 E.02173
G1 X138.219 Y130.042 E.02173
G1 X138.006 Y130.605 E.02173
G1 X137.763 Y131.155 E.02173
G1 X137.489 Y131.69 E.02173
G1 X137.186 Y132.21 E.02173
G1 X136.854 Y132.712 E.02173
M73 P5 R1
G1 X136.495 Y133.194 E.02173
G1 X136.11 Y133.656 E.02173
G1 X135.7 Y134.096 E.02173
G1 X135.266 Y134.512 E.02173
G1 X134.809 Y134.904 E.02173
G1 X134.332 Y135.269 E.02173
G1 X133.835 Y135.608 E.02173
G1 X133.319 Y135.918 E.02173
G1 X132.788 Y136.199 E.02173
G1 X132.241 Y136.45 E.02173
G1 X131.682 Y136.671 E.02173
G1 X131.111 Y136.86 E.02173
G1 X130.53 Y137.017 E.02173
G1 X129.942 Y137.141 E.02173
G1 X129.348 Y137.233 E.02173
G1 X128.749 Y137.291 E.02173
G1 X128.148 Y137.317 E.02173
G1 X127.547 Y137.308 E.02173
G1 X126.947 Y137.266 E.02173
G1 X126.35 Y137.191 E.02173
G1 X125.758 Y137.083 E.02173
G1 X125.174 Y136.943 E.02173
G1 X124.598 Y136.769 E.02173
G1 X124.032 Y136.565 E.02173
G1 X123.479 Y136.329 E.02173
G1 X122.94 Y136.062 E.02173
G1 X122.416 Y135.766 E.02173
G1 X121.91 Y135.442 E.02173
G1 X121.422 Y135.09 E.02173
G1 X120.955 Y134.711 E.02173
G1 X120.51 Y134.307 E.02173
G1 X120.087 Y133.879 E.02173
G1 X119.69 Y133.428 E.02173
G1 X119.317 Y132.955 E.02173
G1 X118.972 Y132.463 E.02173
G1 X118.655 Y131.952 E.02173
G1 X118.366 Y131.424 E.02173
G1 X118.107 Y130.882 E.02173
G1 X117.879 Y130.325 E.02173
G1 X117.682 Y129.757 E.02173
G1 X117.517 Y129.179 E.02173
G1 X117.384 Y128.592 E.02173
G1 X117.284 Y127.999 E.02173
G1 X117.218 Y127.401 E.02173
G1 X117.184 Y126.801 E.02173
G1 X117.184 Y126.199 E.02173
G1 X117.218 Y125.599 E.02173
G1 X117.281 Y125.028 E.02076
G1 X117.385 Y124.407 E.02273
G1 X117.517 Y123.821 E.0217
G1 X117.682 Y123.243 E.02173
G1 X117.879 Y122.675 E.02173
G1 X118.107 Y122.118 E.02173
G1 X118.366 Y121.576 E.02173
G1 X118.655 Y121.048 E.02173
G1 X118.972 Y120.537 E.02173
G1 X119.317 Y120.045 E.02173
G1 X119.69 Y119.572 E.02173
G1 X120.087 Y119.121 E.02173
G1 X120.51 Y118.693 E.02173
G1 X120.955 Y118.289 E.02173
G1 X121.422 Y117.911 E.0217
G1 X121.932 Y117.544 E.02273
G1 X122.416 Y117.234 E.02076
G1 X122.94 Y116.938 E.02173
G1 X123.479 Y116.671 E.02173
G1 X124.032 Y116.435 E.02173
G1 X124.598 Y116.231 E.02173
G1 X125.174 Y116.057 E.02173
G1 X125.758 Y115.917 E.02173
G1 X126.35 Y115.809 E.02173
G1 X126.947 Y115.734 E.02173
G1 X127.54 Y115.692 E.0215
G1 X128.435 Y115.696 E.03232
G1 X128.579 Y115.707 E.00523
G1 X128.655 Y115.255 F30000
;TYPE:Outer wall
G1 F3000
G1 X129.407 Y115.314 E.02725
G1 X130.024 Y115.409 E.02256
G1 X130.637 Y115.539 E.02265
G1 X131.243 Y115.702 E.02265
G1 X131.838 Y115.899 E.02265
G1 X132.421 Y116.129 E.02265
G1 X132.99 Y116.391 E.02265
M73 P6 R1
G1 X133.544 Y116.684 E.02265
G1 X134.081 Y117.007 E.02265
G1 X134.6 Y117.36 E.02265
G1 X135.076 Y117.724 E.02166
G1 X135.573 Y118.149 E.02365
G1 X136.026 Y118.583 E.02263
G1 X136.453 Y119.041 E.02265
G1 X136.855 Y119.523 E.02265
G1 X137.229 Y120.026 E.02265
G1 X137.574 Y120.549 E.02265
G1 X137.89 Y121.09 E.02265
G1 X138.175 Y121.648 E.02265
G1 X138.429 Y122.222 E.02265
G1 X138.651 Y122.808 E.02264
G1 X138.84 Y123.406 E.02265
G1 X138.995 Y124.013 E.02265
G1 X139.116 Y124.628 E.02265
G1 X139.203 Y125.249 E.02265
G1 X139.255 Y125.873 E.02265
G1 X139.273 Y126.5 E.02265
G1 X139.255 Y127.127 E.02265
G1 X139.203 Y127.751 E.02265
G1 X139.116 Y128.372 E.02265
G1 X138.995 Y128.987 E.02265
G1 X138.84 Y129.594 E.02265
G1 X138.651 Y130.192 E.02265
G1 X138.429 Y130.778 E.02264
G1 X138.175 Y131.352 E.02265
G1 X137.89 Y131.91 E.02265
G1 X137.574 Y132.451 E.02265
G1 X137.229 Y132.974 E.02265
G1 X136.855 Y133.477 E.02265
G1 X136.453 Y133.959 E.02265
G1 X136.026 Y134.417 E.02265
G1 X135.573 Y134.851 E.02265
G1 X135.097 Y135.259 E.02265
G1 X134.6 Y135.64 E.02265
G1 X134.081 Y135.993 E.02265
G1 X133.544 Y136.316 E.02265
G1 X132.99 Y136.609 E.02265
G1 X132.421 Y136.871 E.02265
G1 X131.838 Y137.101 E.02265
G1 X131.243 Y137.298 E.02265
G1 X130.637 Y137.461 E.02265
G1 X130.024 Y137.591 E.02265
G1 X129.405 Y137.687 E.02265
G1 X128.781 Y137.748 E.02265
G1 X128.154 Y137.774 E.02265
G1 X127.528 Y137.765 E.02265
G1 X126.902 Y137.722 E.02265
G1 X126.28 Y137.643 E.02265
G1 X125.664 Y137.531 E.02265
G1 X125.054 Y137.384 E.02265
G1 X124.454 Y137.204 E.02265
G1 X123.865 Y136.99 E.02265
G1 X123.288 Y136.744 E.02265
G1 X122.726 Y136.466 E.02265
G1 X122.18 Y136.158 E.02265
G1 X121.653 Y135.82 E.02265
G1 X121.144 Y135.453 E.02265
G1 X120.657 Y135.058 E.02265
G1 X120.193 Y134.637 E.02265
G1 X119.753 Y134.191 E.02265
G1 X119.338 Y133.721 E.02265
G1 X118.95 Y133.228 E.02265
G1 X118.591 Y132.715 E.02265
G1 X118.26 Y132.183 E.02265
G1 X117.959 Y131.633 E.02265
G1 X117.689 Y131.067 E.02265
G1 X117.451 Y130.487 E.02265
G1 X117.246 Y129.895 E.02265
G1 X117.074 Y129.292 E.02265
G1 X116.936 Y128.68 E.02265
G1 X116.832 Y128.062 E.02265
G1 X116.762 Y127.439 E.02265
G1 X116.727 Y126.813 E.02265
G1 X116.727 Y126.187 E.02265
G1 X116.762 Y125.561 E.02265
G1 X116.829 Y124.965 E.02166
G1 X116.936 Y124.319 E.02365
G1 X117.074 Y123.708 E.02263
M73 P7 R1
G1 X117.246 Y123.105 E.02265
G1 X117.451 Y122.513 E.02265
G1 X117.689 Y121.933 E.02265
G1 X117.959 Y121.367 E.02265
G1 X118.26 Y120.817 E.02265
G1 X118.591 Y120.285 E.02265
G1 X118.95 Y119.772 E.02265
G1 X119.338 Y119.279 E.02265
G1 X119.753 Y118.809 E.02265
G1 X120.193 Y118.363 E.02265
G1 X120.657 Y117.942 E.02265
G1 X121.144 Y117.547 E.02263
G1 X121.676 Y117.165 E.02365
G1 X122.18 Y116.842 E.02166
G1 X122.726 Y116.534 E.02265
G1 X123.288 Y116.256 E.02265
G1 X123.865 Y116.01 E.02265
G1 X124.454 Y115.796 E.02265
G1 X125.054 Y115.616 E.02265
G1 X125.664 Y115.469 E.02265
G1 X126.28 Y115.357 E.02265
G1 X126.902 Y115.278 E.02264
G1 X127.525 Y115.235 E.02257
G1 X128.454 Y115.239 E.03354
G1 X128.615 Y115.252 E.00585
G1 E-.728 F1800
;WIPE_START
G1 F30000
G1 X129.407 Y115.314 E-.04766
G1 X129.808 Y115.375 E-.02434
;WIPE_END
G1 X133.874 Y117.696 Z.6
G1 Z.2
G1 E.8 F1800
;TYPE:Bottom surface
;WIDTH:0.504248
G1 F6300
G1 X135.432 Y119.253 E.08033
G1 X135.784 Y119.631 E.01885
G1 X136.154 Y120.075 E.02105
G1 X136.499 Y120.538 E.02105
G1 X136.817 Y121.02 E.02105
G1 X137.174 Y121.648 E.02637
G1 X132.852 Y117.326 E.22289
G1 X132.071 Y116.949 E.03162
G1 X131.661 Y116.788 E.01606
G1 X137.708 Y122.834 E.31182
G1 X137.808 Y123.1 E.01035
G1 X138.02 Y123.799 E.02664
G1 X130.7 Y116.479 E.3775
G1 X129.853 Y116.284 E.03169
M73 P8 R1
G1 X138.21 Y124.641 E.43097
G1 X138.322 Y125.405 E.02814
G1 X129.1 Y116.184 E.47555
G1 X128.394 Y116.13 E.02582
G1 X138.37 Y126.106 E.51445
G1 X138.374 Y126.762 E.02392
G1 X127.739 Y116.127 E.54842
G1 X127.116 Y116.157 E.02273
G1 X138.34 Y127.38 E.57877
G1 X138.273 Y127.966 E.0215
G1 X126.53 Y116.224 E.60555
M73 P9 R1
G1 X125.973 Y116.319 E.02061
G1 X138.178 Y128.523 E.62938
G1 X138.057 Y129.056 E.01989
G1 X125.442 Y116.44 E.65059
G1 X124.933 Y116.583 E.01928
G1 X137.914 Y129.565 E.66944
G1 X137.751 Y130.053 E.01879
G1 X124.445 Y116.748 E.68615
G1 X123.976 Y116.931 E.01836
M73 P10 R1
G1 X137.568 Y130.523 E.7009
G1 X137.367 Y130.975 E.01803
G1 X123.525 Y117.133 E.71381
G1 X123.091 Y117.351 E.01772
G1 X137.146 Y131.406 E.72482
G1 X136.909 Y131.822 E.01744
G1 X122.674 Y117.587 E.7341
G1 X122.275 Y117.84 E.01724
M73 P11 R1
G1 X136.657 Y132.222 E.74168
G1 X136.39 Y132.608 E.0171
G1 X121.891 Y118.108 E.74772
G1 X121.52 Y118.39 E.01698
G1 X136.109 Y132.979 E.75235
G1 X135.813 Y133.335 E.01689
G1 X121.164 Y118.686 E.75543
G1 X120.822 Y118.996 E.01684
M73 P12 R1
G1 X135.499 Y133.674 E.75692
G1 X135.391 Y133.791 E.00582
G1 X135.173 Y134 E.01101
G1 X120.497 Y119.324 E.75681
G1 X120.186 Y119.666 E.01684
G1 X134.832 Y134.312 E.75529
G1 X134.478 Y134.61 E.01688
G1 X119.889 Y120.021 E.75236
G1 X119.606 Y120.39 E.01697
M73 P13 R1
G1 X134.109 Y134.893 E.74791
G1 X133.722 Y135.159 E.01711
G1 X119.337 Y120.773 E.74185
G1 X119.086 Y121.176 E.01727
G1 X133.321 Y135.41 E.73406
G1 X132.905 Y135.646 E.01745
G1 X118.851 Y121.593 E.72471
G1 X118.632 Y122.026 E.0177
M73 P14 R1
G1 X132.472 Y135.866 E.71372
G1 X132.023 Y136.07 E.01798
G1 X118.43 Y122.476 E.701
G1 X118.245 Y122.944 E.01834
G1 X131.555 Y136.254 E.68638
G1 X131.066 Y136.417 E.0188
G1 X118.08 Y123.431 E.66968
G1 X117.936 Y123.939 E.01926
M73 P15 R1
G1 X130.556 Y136.56 E.65084
G1 X130.024 Y136.68 E.0199
G1 X117.815 Y124.471 E.6296
G1 X117.721 Y125.03 E.02065
G1 X129.467 Y136.775 E.6057
G1 X128.881 Y136.842 E.02149
G1 X117.653 Y125.614 E.57903
G1 X117.619 Y126.232 E.02257
G1 X128.264 Y136.877 E.54896
G1 X127.609 Y136.875 E.02388
M73 P16 R1
G1 X117.624 Y126.89 E.51491
G1 X117.676 Y127.594 E.02576
G1 X126.905 Y136.824 E.47594
G1 X126.141 Y136.712 E.02816
G1 X117.785 Y128.355 E.43093
G1 X117.974 Y129.197 E.03144
G1 X125.304 Y136.527 E.37803
G1 X124.734 Y136.357 E.02169
G1 X124.338 Y136.214 E.01536
G1 X118.28 Y130.155 E.31244
G1 X118.504 Y130.706 E.02169
G1 X118.818 Y131.346 E.02599
G1 X123.158 Y135.686 E.22381
G1 X122.64 Y135.394 E.02166
M73 P17 R1
G1 X122.154 Y135.083 E.02105
G1 X121.686 Y134.745 E.02105
G1 X121.238 Y134.381 E.02105
G1 X120.842 Y134.022 E.0195
G1 X119.177 Y132.357 E.08585
M106 S252
;LAYER_CHANGE
;Z:0.4
;HEIGHT:0.2
;BEFORE_LAYER_CHANGE
;0.4
G92 E0

G1 E-.728 F1800
;WIPE_START
G1 F30000
G1 X120.026 Y133.206 E-.072
;WIPE_END
M73 L2
;LAYER:2

;_SET_FAN_SPEED_CHANGING_LAYER
SET_VELOCITY_LIMIT ACCEL=10000
; No need to reheat.
;G17
G3 Z.8 I1.095 J.531
G1 X128.615 Y115.498 Z.8
G1 Z.4
G1 E.8 F1800
;TYPE:Inner wall
;WIDTH:0.45
G1 F12000
G1 X128.682 Y115.501 E.00215
G1 X129.375 Y115.564 E.02239
G1 X129.979 Y115.657 E.01966
G1 X130.578 Y115.784 E.01972
G1 X131.17 Y115.944 E.01972
G1 X131.752 Y116.136 E.01972
G1 X132.322 Y116.361 E.01972
G1 X132.879 Y116.617 E.01972
G1 X133.42 Y116.903 E.01972
G1 X133.945 Y117.22 E.01972
G1 X134.452 Y117.564 E.01972
G1 X134.874 Y117.888 E.0171
G1 X135.405 Y118.337 E.02239
G1 X135.846 Y118.76 E.01966
G1 X136.264 Y119.208 E.01972
G1 X136.656 Y119.679 E.01972
G1 X137.022 Y120.171 E.01972
G1 X137.36 Y120.682 E.01972
G1 X137.669 Y121.211 E.01972
G1 X137.948 Y121.757 E.01972
G1 X138.196 Y122.317 E.01972
G1 X138.413 Y122.89 E.01972
G1 X138.597 Y123.475 E.01972
G1 X138.749 Y124.069 E.01972
G1 X138.867 Y124.67 E.01972
G1 X138.952 Y125.277 E.01972
G1 X139.003 Y125.887 E.01972
G1 X139.02 Y126.5 E.01972
G1 X139.003 Y127.113 E.01972
G1 X138.952 Y127.723 E.01972
G1 X138.867 Y128.33 E.01972
G1 X138.749 Y128.931 E.01972
G1 X138.597 Y129.525 E.01972
G1 X138.413 Y130.11 E.01972
G1 X138.196 Y130.683 E.01972
G1 X137.948 Y131.243 E.01972
G1 X137.669 Y131.789 E.01972
G1 X137.36 Y132.318 E.01972
G1 X137.022 Y132.829 E.01972
G1 X136.656 Y133.321 E.01972
G1 X136.264 Y133.792 E.01972
G1 X135.846 Y134.24 E.01972
G1 X135.404 Y134.664 E.01972
G1 X134.939 Y135.063 E.01972
G1 X134.452 Y135.436 E.01972
G1 X133.945 Y135.78 E.01972
G1 X133.42 Y136.097 E.01972
G1 X132.879 Y136.383 E.01972
G1 X132.322 Y136.639 E.01972
G1 X131.752 Y136.864 E.01972
G1 X131.17 Y137.056 E.01972
G1 X130.578 Y137.216 E.01972
G1 X129.979 Y137.343 E.01972
G1 X129.373 Y137.436 E.01972
G1 X128.763 Y137.496 E.01972
G1 X128.151 Y137.522 E.01972
G1 X127.538 Y137.513 E.01972
G1 X126.927 Y137.471 E.01972
G1 X126.319 Y137.394 E.01972
G1 X125.716 Y137.284 E.01972
G1 X125.12 Y137.14 E.01972
G1 X124.533 Y136.964 E.01972
G1 X123.957 Y136.755 E.01972
G1 X123.393 Y136.515 E.01972
G1 X122.844 Y136.244 E.01972
G1 X122.31 Y135.942 E.01972
G1 X121.794 Y135.611 E.01972
G1 X121.298 Y135.253 E.01972
G1 X120.822 Y134.867 E.01972
G1 X120.368 Y134.455 E.01972
G1 X119.937 Y134.019 E.01972
G1 X119.532 Y133.559 E.01972
G1 X119.153 Y133.078 E.01972
G1 X118.801 Y132.576 E.01972
G1 X118.477 Y132.056 E.01972
G1 X118.183 Y131.518 E.01972
G1 X117.92 Y130.965 E.01972
G1 X117.687 Y130.398 E.01972
G1 X117.487 Y129.819 E.01972
G1 X117.318 Y129.229 E.01972
G1 X117.183 Y128.632 E.01972
G1 X117.081 Y128.027 E.01972
G1 X117.013 Y127.418 E.01972
G1 X116.979 Y126.806 E.01972
G1 X116.979 Y126.194 E.01972
G1 X117.013 Y125.582 E.01972
G1 X117.072 Y125.053 E.0171
G1 X117.184 Y124.367 E.02239
G1 X117.318 Y123.771 E.01966
G1 X117.487 Y123.181 E.01972
G1 X117.687 Y122.602 E.01972
G1 X117.919 Y122.037 E.01966
G1 X118.222 Y121.411 E.02239
G1 X118.477 Y120.944 E.0171
G1 X118.801 Y120.424 E.01972
G1 X119.153 Y119.922 E.01972
G1 X119.532 Y119.441 E.01972
G1 X119.937 Y118.981 E.01972
G1 X120.368 Y118.545 E.01972
G1 X120.822 Y118.133 E.01972
G1 X121.298 Y117.747 E.01972
G1 X121.794 Y117.389 E.01972
G1 X122.31 Y117.058 E.01972
G1 X122.844 Y116.756 E.01972
G1 X123.393 Y116.485 E.01972
G1 X123.957 Y116.245 E.01972
G1 X124.533 Y116.036 E.01972
G1 X125.12 Y115.86 E.01972
G1 X125.716 Y115.716 E.01972
G1 X126.319 Y115.606 E.01972
G1 X126.927 Y115.529 E.01972
G1 X127.538 Y115.487 E.01972
G1 X128.151 Y115.478 E.01972
G1 X128.575 Y115.496 E.01367
G1 X128.632 Y115.106 F30000
SET_VELOCITY_LIMIT ACCEL=5000
;TYPE:Outer wall
;WIDTH:0.42
G1 F12000
G1 X128.708 Y115.109 E.00228
G1 X129.423 Y115.174 E.02139
G1 X130.049 Y115.271 E.01889
G1 X130.67 Y115.402 E.01892
G1 X131.283 Y115.568 E.01891
G1 X131.885 Y115.767 E.01891
G1 X132.476 Y116 E.01892
G1 X133.052 Y116.265 E.01891
G1 X133.613 Y116.562 E.01892
G1 X134.157 Y116.889 E.01891
G1 X134.682 Y117.247 E.01892
G1 X135.12 Y117.582 E.01645
G1 X135.668 Y118.046 E.02139
G1 X136.125 Y118.485 E.0189
G1 X136.558 Y118.949 E.01892
G1 X136.965 Y119.436 E.01892
G1 X137.343 Y119.945 E.01891
G1 X137.693 Y120.475 E.01892
G1 X138.013 Y121.023 E.01892
G1 X138.302 Y121.588 E.01892
G1 X138.559 Y122.168 E.01892
G1 X138.783 Y122.762 E.01891
G1 X138.974 Y123.367 E.01892
G1 X139.132 Y123.982 E.01892
G1 X139.254 Y124.605 E.01891
G1 X139.342 Y125.233 E.01892
G1 X139.395 Y125.866 E.01892
G1 X139.413 Y126.5 E.01892
G1 X139.395 Y127.134 E.01892
